icon-themes/breeze_svg/cmd/lc_gluevertalignbottom.svg

<svg viewBox="0 0 24 24" xmlns="http://www.w3.org/2000/svg"><path d="m4 4v16h16v-16zm1 1h14v14h-14z" fill="#4d4d4d"/><path d="m11 14v5h2v-5z" fill="#da4453"/><path d="m12 9c-1.656859 0-3 1.3431-3 3s1.343141 3 3 3 3-1.3431 3-3-1.343141-3-3-3zm0 2c.552285 0 1 .4477 1 1s-.447715 1-1 1-1-.4477-1-1 .447715-1 1-1z" fill="#1d99f3"/></svg>

<svg xmlns="http://www.w3.org/2000/svg" viewBox="0 0 24 24">
 <path 
     style="fill:#4d4d4d" 
     d="M 4 4 L 4 20 L 20 20 L 20 4 L 4 4 z M 5 5 L 19 5 L 19 19 L 5 19 L 5 5 z "
     />
 <path 
     style="fill:#da4453" 
     d="M 11 14 L 11 19 L 13 19 L 13 14 L 11 14 z "
     />
 <path 
     style="fill:#1d99f3" 
     d="M 12 9 C 10.343141 9 9 10.3431 9 12 C 9 13.6569 10.343141 15 12 15 C 13.656859 15 15 13.6569 15 12 C 15 10.3431 13.656859 9 12 9 z M 12 11 C 12.552285 11 13 11.4477 13 12 C 13 12.5523 12.552285 13 12 13 C 11.447715 13 11 12.5523 11 12 C 11 11.4477 11.447715 11 12 11 z "
     />
</svg>
